X:1
T:Title
%%score { ( 1 3 ) | 2 }
L:1/8
M:3/4
K:Eb
V:1 treble nm="Grand Piano"
V:3 treble 
V:2 bass 
V:1
 z2 z2 z[Q:1/4=94] [EG] | [GB]>[Ac] [GB]3 [EG] | [DF]<[DG] E3 B, | E>E [DF]3 [D_G] | [EG]4 z [EG] | %5
 [GB]>[Ac] [GB]3 [B,EG] | [A,DF]<[B,EG] [G,E]3 [G,E] | [B,DF]>[B,DF] [B,EG]3 [A,DF] | %8
 [G,E]4 z [B,GB] | [Ge]>[Ge] [Fd]3 [Ec] | [DA]>[Dc] [EB]3 [B,F] | [B,EG]>[CEG] [CE=A]3 [CEA] | %12
 [B,DB]4 z [B,GB] | [Ge]>[Ge] [Fd]3 [Ec] | [DA]>[Ec] B3 E | [DF]<[DF] [EG]3 [DF] |[M:5/8] E- E3 z | %17
[M:1/8] [GB] |[M:3/4] [GB]<[Ac] [EG]3 [DF] | G<B E3 E | E2 [DF]3 [D_G] | [EG]4 z [GB] | %22
 [GB]<[Ac] [EG]3 [DF] | G<B E3 E | [DF]<[DF] [EG]3 [DF] |[M:5/8] E- E3 z |] %26
V:2
 z2 z2 z [E,B,] | [E,E]>[E,E] [E,E]3 [E,B,] | [B,,A,]<[B,,B,] [E,G,B,]3 [E,G,] | %3
 [E,G,B,]>[E,G,B,] [B,,B,]3 [B,,B,] | [E,B,]4 z [E,B,] | [E,E]>[E,E] [E,E]3 E, | B,,<B,, C,3 C, | %7
 B,,>B,, B,,3 B,, | E,4 z E, | [E,B,]>[E,B,] [B,,B,]3 [B,,B,] | [B,,F,]>[B,,A,] [E,G,]3 D, | %11
 _D,>C, F,3 F, | B,,4 z E, | [E,B,]>[E,B,] [B,,B,]3 [B,,B,] | [B,,F,]>[B,,A,] [E,G,E]3 [C,G,] | %15
 [B,,B,]<[B,,B,] [B,,B,]3 [B,,A,] |[M:5/8] [E,G,]- [E,G,]3 z |[M:1/8] [E,E] | %18
[M:3/4] [E,E]<[E,E] [E,B,]3 [B,,B,] | [E,B,E]<[E,G,E] [C,G,]3 [C,G,] | %20
 [C,G,]>[C,G,] [B,,B,]3 [B,,B,] | [E,B,]4 z [E,E] | [E,E]<[E,E] [E,B,]3 [B,,B,] | %23
 [E,B,E]<[D,F,B,] [C,G,C]3 [=B,,G,] | [B,,B,]<[B,,B,] [B,,B,]3 [B,,A,] | %25
[M:5/8] [E,G,]- [E,G,]3 z |] %26
V:3
 x6 | x6 | x6 | x6 | x6 | x6 | x6 | x6 | x6 | x6 | x6 | x6 | x6 | x6 | x6 | x6 |[M:5/8] x5 | %17
[M:1/8] x |[M:3/4] x6 | x6 | z z/ E/- E/ z/ z z2 | x6 | x6 | x6 | x6 |[M:5/8] x5 |] %26

